usr/share/icons/biglinux-icons-material/16/actions/view-financial-account-reopen.svg

<svg viewBox="0 0 16 16" xmlns="http://www.w3.org/2000/svg">
  <defs id="defs3051">
    <style type="text/css" id="current-color-scheme">
      .ColorScheme-Text {
        color:#363636;
      }
      </style>
  </defs>
<path
    d="m4.71875 2-2.5 2.3125-.21875.1894531.21875.1875 2.4980469 2.3105469h.0039062l.6855469-.6542969-1.4375-1.34375h4.0292969v-1.0019531h-4.0292969l1.4375-1.34375zm9.28125 1.0488281-6.5292969 4.9511719h-5.4707031v6l5 .011719v-.011719h7v-3.134766h-1v1.134766h-3.3457031l4.3457031-3.296875zm-1 2.0136719v3.1445312l-5 3.7910158v-3.1445314zm-10 3.9375h4v3h-4z"
    style="fill:currentColor;fill-opacity:1;stroke:none" 
    class="ColorScheme-Text"
    />
</svg>

<svg xmlns="http://www.w3.org/2000/svg" viewBox="0 0 16 16"><path d="m4.719 2-2.5 2.313L2 4.502l.219.187L4.717 7h.004l.685-.654L3.97 5.002h4.029V4h-4.03l1.438-1.344zM14 3.049 7.47 8H2v6l5 .012V14h7v-3.135h-1V12H9.654L14 8.703zm-1 2.013v3.145l-5 3.791V8.854zM3 9h4v3H3z" style="fill:currentColor;fill-opacity:1;stroke:none;color:#dedede"/></svg>
